symbols/web/iron/materialsymbolssharp/iron_wght300fill1_24px.svg

<svg xmlns="http://www.w3.org/2000/svg" height="24" width="24"><path d="M2.625 17.5v-2.55q0-1.5 1.075-2.575Q4.775 11.3 6.275 11.3h8.85V9h-5.95v1.25h-1.5V7.5h8.95v6.725h1.25V6.5h3.5V8h-2v7.725h-2.75V17.5Z"/></svg>

<svg xmlns="http://www.w3.org/2000/svg" height="24" width="24"><path d="M2.625 17.5V14.95Q2.625 13.45 3.7 12.375Q4.775 11.3 6.275 11.3H15.125V9H9.175V10.25H7.675V7.5H16.625V14.225H17.875V6.5H21.375V8H19.375V15.725H16.625V17.5Z"/></svg>
